react/assets/icons/brightness.svg

<svg width="48px" height="48px" viewBox="0 0 24 24" xmlns="http://www.w3.org/2000/svg" aria-labelledby="brightnessIconTitle" stroke-linecap="square" stroke-linejoin="miter" fill="none"> <title id="brightnessIconTitle">Brightness control</title> <path d="M15 6L12 3L9.00001 6H6.00001V9L3 12L6.00001 15V18H8.99999L12 21L15 18H18V15L21 12L18 9V6H15Z"/> <path d="M16 12C16 9.79086 14.2091 8 12 8V16C14.2091 16 16 14.2091 16 12Z"/> </svg>

<svg width="48" height="48" viewBox="0 0 24 24" xmlns="http://www.w3.org/2000/svg" aria-labelledby="brightnessIconTitle" stroke-linecap="square" fill="none"><path d="M15 6l-3-3-3 3H6v3l-3 3 3 3v3h3l3 3 3-3h3v-3l3-3-3-3V6h-3z"/><path d="M16 12a4 4 0 00-4-4v8a4 4 0 004-4z"/></svg>
